PortableApps/LibreOfficePortable/App/libreoffice/help/media/icon-themes/formula/res/refinp2.svg

<svg viewBox="0 0 16 16" xmlns="http://www.w3.org/2000/svg"><path d="m3 11v3h4.8847656l-.4453125-.445312.0410157.039062c-.3219343-.287017-.5275398-.749512-.5117188-1.167969.0158214-.418456.1988826-.762079.4511719-1.013672.1953579-.194818.4465445-.345886.7441406-.412109zm5.7773438 0c.3114586.071489.615092.244344.8242187.480469l-.0410156-.044922.4375.4375.0019531-.873047z" fill="#fff"/><path d="m11.484184 15.999935a.49947237.49960183 0 0 1 -.394076-.202943l-2.9438609-2.948526a.50005966.50018927 0 1 1 .708165-.706399l2.1401039 2.144562.0078-5.7799722a.49947237.49960183 0 1 1 .998845 0l-.0078 5.7799722 2.147906-2.144562a.49947237.49960183 0 1 1 .704263.70835l-2.957516 2.954381a.49947237.49960183 0 0 1 -.40383.195137z" fill="#4d82b8" fill-rule="evenodd"/><path d="m3 5v3h7.097656c.213399-.5830634.777742-1.0100495 1.427735-1 .632848.0100106 1.175135.431555 1.382812 1h.091797v-3z" fill="#fff"/><g fill="#808080"><path d="m3 2c-.554 0-1 .446-1 1v5c0 .554.446 1 1 1h7.001953v-.4824219c-.0023002-.1816543.036067-.3546361.095703-.5175781h-7.097656v-3h10v3h1v-5c0-.554-.446-1-1-1z"/><path d="m3 10c-.554 0-1 .446-1 1v3c0 .554.44629 1.017922 1 1h5.8828125l-.9980469-1h-4.8847656v-3h5.1640625c.0867258-.019299.1770194-.033822.2714844-.037109.1124644-.003914.2273836.010848.3417969.037109h1.2226562v-1z"/></g></svg>

<?xml version="1.0" encoding="UTF-8" standalone="no"?>
<svg
   xmlns:dc="http://purl.org/dc/elements/1.1/"
   xmlns:cc="http://creativecommons.org/ns#"
   xmlns:rdf="http://www.w3.org/1999/02/22-rdf-syntax-ns#"
   xmlns:svg="http://www.w3.org/2000/svg"
   xmlns="http://www.w3.org/2000/svg"
   xmlns:sodipodi="http://sodipodi.sourceforge.net/DTD/sodipodi-0.dtd"
   xmlns:inkscape="http://www.inkscape.org/namespaces/inkscape"
   viewBox="0 0 16 16"
   id="svg2"
   version="1.1"
   inkscape:version="0.91 r13725"
   sodipodi:docname="refinp2.svg">
  <metadata
     id="metadata18">
    <rdf:RDF>
      <cc:Work
         rdf:about="">
        <dc:format>image/svg+xml</dc:format>
        <dc:type
           rdf:resource="http://purl.org/dc/dcmitype/StillImage" />
      </cc:Work>
    </rdf:RDF>
  </metadata>
  <defs
     id="defs16" />
  <sodipodi:namedview
     pagecolor="#ffffff"
     bordercolor="#666666"
     borderopacity="1"
     objecttolerance="10"
     gridtolerance="10"
     guidetolerance="10"
     inkscape:pageopacity="0"
     inkscape:pageshadow="2"
     inkscape:window-width="2560"
     inkscape:window-height="1381"
     id="namedview14"
     showgrid="true"
     inkscape:zoom="41.7193"
     inkscape:cx="10.707861"
     inkscape:cy="6.4196679"
     inkscape:window-x="0"
     inkscape:window-y="30"
     inkscape:window-maximized="1"
     inkscape:current-layer="svg2">
    <inkscape:grid
       type="xygrid"
       id="grid4208" />
  </sodipodi:namedview>
  <path
     style="fill:#ffffff;fill-opacity:1;stroke:none;stroke-width:2;stroke-linecap:round;stroke-linejoin:round;stroke-miterlimit:4;stroke-dasharray:none;stroke-opacity:1"
     d="M 3 11 L 3 14 L 7.8847656 14 L 7.4394531 13.554688 L 7.4804688 13.59375 C 7.1585345 13.306733 6.952929 12.844238 6.96875 12.425781 C 6.9845714 12.007325 7.1676326 11.663702 7.4199219 11.412109 C 7.6152798 11.217291 7.8664664 11.066223 8.1640625 11 L 3 11 z M 8.7773438 11 C 9.0888024 11.071489 9.3924358 11.244344 9.6015625 11.480469 L 9.5605469 11.435547 L 9.9980469 11.873047 L 10 11 L 8.7773438 11 z "
     id="rect4210" />
  <path
     d="m11.484184 15.999935a.49947237.49960183 0 0 1 -.394076-.202943l-2.9438609-2.948526a.50005966.50018927 0 1 1 .708165-.706399l2.1401039 2.144562.0078-5.7799722a.49947237.49960183 0 1 1 .998845 0l-.0078 5.7799722 2.147906-2.144562a.49947237.49960183 0 1 1 .704263.70835l-2.957516 2.954381a.49947237.49960183 0 0 1 -.40383.195137z"
     fill="#4d82b8"
     fill-rule="evenodd"
     id="path4" />
  <path
     d="M 3 5 L 3 8 L 10.097656 8 C 10.311055 7.4169366 10.875398 6.9899505 11.525391 7 C 12.158239 7.0100106 12.700526 7.431555 12.908203 8 L 13 8 L 13 5 L 3 5 z "
     id="path6"
     style="fill:#ffffff;fill-opacity:1" />
  <path
     style="fill:#808080"
     d="M 3,2 C 2.446,2 2,2.446 2,3 l 0,5 c 0,0.554 0.446,1 1,1 l 7.001953,0 0,-0.4824219 C 9.9996528,8.3359238 10.03802,8.162942 10.097656,8 L 3,8 3,5 13,5 13,8 14,8 14,3 C 14,2.446 13.554,2 13,2 Z m 10,6 z"
     id="path10"
     inkscape:connector-curvature="0"
     sodipodi:nodetypes="ssssccccccccssscc" />
  <path
     style="fill:#808080"
     d="M 3 10 C 2.446 10 2 10.446 2 11 L 2 14 C 2 14.554 2.44629 15.017922 3 15 L 8.8828125 15 L 7.8847656 14 L 3 14 L 3 11 L 8.1640625 11 C 8.2507883 10.980701 8.3410819 10.966178 8.4355469 10.962891 C 8.5480113 10.958977 8.6629305 10.973739 8.7773438 11 L 10 11 L 10 10 L 3 10 z "
     id="path12" />
</svg>
